;FLAVOR:Marlin
;TIME:7164
;Filament used: 7.41263m
;Layer height: 0.2
;MINX:62.622
;MINY:67.075
;MINZ:0.24
;MAXX:157.377
;MAXY:152.922
;MAXZ:37.29
;Generated with Cura_SteamEngine 4.5.0
M140 S55
M105
M190 S55
M104 S205
M105
M109 S205
M82 ;absolute extrusion mode
M201 X500.00 Y500.00 Z100.00 E5000.00 ;Setup machine max acceleration
M203 X500.00 Y500.00 Z10.00 E50.00 ;Setup machine max feedrate
M204 P500.00 R1000.00 T500.00 ;Setup Print/Retract/Travel acceleration
M205 X8.00 Y8.00 Z0.40 E5.00 ;Setup Jerk
M220 S100 ;Reset Feedrate
M221 S100 ;Reset Flowrate

G28 ;Home

G92 E0 ;Reset Extruder
G1 Z2.0 F3000 ;Move Z Axis up
G1 X10.1 Y20 Z0.28 F5000.0 ;Move to start position
G1 X10.1 Y200.0 Z0.28 F1500.0 E15 ;Draw the first line
G1 X10.4 Y200.0 Z0.28 F5000.0 ;Move to side a little
G1 X10.4 Y20 Z0.28 F1500.0 E30 ;Draw the second line
G92 E0 ;Reset Extruder
G1 Z2.0 F3000 ;Move Z Axis up

G92 E0
G92 E0
G1 F2700 E-5
;LAYER_COUNT:180
;LAYER:-6
M107
G0 F15000 X88.5 Y73.002 Z0.24
;TYPE:SUPPORT-INTERFACE
G1 F2700 E0
G1 F2250 X89.173 Y72.202 E0.08345
G1 X89.812 Y71.534 E0.15724
G1 X90.508 Y70.888 E0.23304
G1 X90.647 Y70.769 E0.24765
G1 X91.338 Y70.215 E0.31835
G1 X91.477 Y70.111 E0.3322
G1 X92.192 Y69.618 E0.40153
G1 X92.376 Y69.502 E0.41889
G1 X93.132 Y69.059 E0.48884
G1 X93.274 Y68.982 E0.50173
G1 X94.219 Y68.523 E0.58559
G1 X95.069 Y68.18 E0.65876
G1 X95.242 Y68.118 E0.67343
G1 X96.08 Y67.849 E0.74368
G1 X96.244 Y67.803 E0.75728
G1 X97.116 Y67.591 E0.82892
G1 X97.278 Y67.558 E0.84211
G1 X98.171 Y67.41 E0.91437
G1 X98.348 Y67.387 E0.92862
G1 X99.242 Y67.304 E1.00029
G1 X99.384 Y67.297 E1.01163
G1 X100.125 Y67.276 E1.07081
G1 X119.886 Y67.277 E2.64822
G1 X121.01 Y67.322 E2.73801
G1 X121.927 Y67.424 E2.81166
G1 X122.102 Y67.449 E2.82577
G1 X122.991 Y67.613 E2.89793
G1 X123.114 Y67.641 E2.908
G1 X124.008 Y67.875 E2.98177
G1 X124.171 Y67.924 E2.99536
G1 X125.013 Y68.211 E3.06637
G1 X125.179 Y68.274 E3.08054
G1 X125.982 Y68.615 E3.15018
G1 X126.171 Y68.703 E3.16682
G1 X127.082 Y69.177 E3.24879
G1 X127.861 Y69.652 E3.32163
G1 X128.012 Y69.752 E3.33608
G1 X128.726 Y70.263 E3.40617
G1 X128.874 Y70.376 E3.42103
G1 X129.674 Y71.049 E3.50449
G1 X130.342 Y71.688 E3.57828
G1 X130.988 Y72.384 E3.65408
G1 X131.107 Y72.523 E3.66868
G1 X131.661 Y73.214 E3.73938
G1 X131.765 Y73.353 E3.75324
G1 X132.258 Y74.068 E3.82256
G1 X132.374 Y74.252 E3.83993
G1 X132.887 Y75.135 E3.92144
G1 X133.292 Y75.958 E3.99466
G1 X133.353 Y76.095 E4.00663
G1 X133.695 Y76.94 E4.0794
G1 X133.754 Y77.106 E4.09346
G1 X134.025 Y77.948 E4.16407
G1 X134.072 Y78.114 E4.17784
G1 X134.283 Y78.983 E4.24923
G1 X134.317 Y79.146 E4.26252
G1 X134.465 Y80.038 E4.33469
G1 X134.489 Y80.224 E4.34966
G1 X134.579 Y81.26 E4.43267
G1 X134.6 Y81.993 E4.49121
G1 X134.6 Y100.439 E5.96365
G1 X134.642 Y101.107 E6.01708
G1 X134.771 Y101.778 E6.07162
G1 X134.984 Y102.427 E6.12614
G1 X135.276 Y103.044 E6.18063
G1 X135.644 Y103.619 E6.23513
G1 X136.082 Y104.143 E6.28964
G1 X136.582 Y104.607 E6.34409
G1 X137.138 Y105.006 E6.39872
G1 X137.736 Y105.329 E6.45297
G1 X138.239 Y105.531 E6.49624
G1 X138.942 Y105.772 E6.55557
G1 X139.074 Y105.823 E6.56686
G1 X139.893 Y106.172 E6.63793
G1 X140.071 Y106.257 E6.65367
G1 X141.122 Y106.808 E6.7484
G1 X149.869 Y111.866 E7.55495
G1 X150.711 Y112.394 E7.63429
G1 X150.823 Y112.471 E7.64514
G1 X151.559 Y113.011 E7.718
G1 X151.701 Y113.123 E7.73244
G1 X152.373 Y113.697 E7.80299
G1 X152.496 Y113.811 E7.81637
G1 X153.138 Y114.444 E7.88834
G1 X153.248 Y114.561 E7.90116
G1 X153.835 Y115.233 E7.97239
G1 X153.944 Y115.368 E7.98624
G1 X154.487 Y116.089 E8.05829
G1 X154.583 Y116.226 E8.07164
G1 X155.075 Y116.993 E8.14438
G1 X155.149 Y117.118 E8.15597
G1 X155.59 Y117.925 E8.22938
G1 X155.66 Y118.064 E8.24181
G1 X156.032 Y118.885 E8.31376
G1 X156.089 Y119.024 E8.32575
G1 X156.402 Y119.873 E8.39798
G1 X156.456 Y120.04 E8.41199
G1 X156.704 Y120.905 E8.48382
G1 X156.748 Y121.08 E8.49822
G1 X156.929 Y121.941 E8.56845
G1 X156.957 Y122.099 E8.58126
G1 X157.066 Y122.851 E8.64192
G1 X157.154 Y123.828 E8.72022
G1 X157.163 Y123.99 E8.73317
G1 X157.177 Y124.885 E8.80462
G1 X157.174 Y125.072 E8.81955
G1 X157.124 Y125.95 E8.88975
G1 X157.107 Y126.129 E8.9041
G1 X156.992 Y127.016 E8.9755
G1 X156.964 Y127.183 E8.98902
G1 X156.786 Y128.052 E9.05983
G1 X156.744 Y128.228 E9.07427
G1 X156.508 Y129.061 E9.14338
G1 X156.444 Y129.262 E9.16022
G1 X156.143 Y130.089 E9.23047
G1 X156.078 Y130.252 E9.24448
G1 X155.713 Y131.065 E9.31562
G1 X155.638 Y131.218 E9.32922
G1 X155.212 Y132.009 E9.40093
G1 X155.124 Y132.16 E9.41488
G1 X154.644 Y132.912 E9.4861
G1 X154.559 Y133.035 E9.49803
G1 X154.012 Y133.769 E9.5711
G1 X153.906 Y133.902 E9.58468
G1 X153.229 Y134.679 E9.66694
G1 X152.8 Y135.119 E9.716
G1 X151.828 Y136.073 E9.82471
G1 X151.263 Y136.607 E9.88677
G1 X150.784 Y137.042 E9.93842
G1 X149.441 Y138.213 E10.08065
G1 X148.877 Y138.681 E10.13916
G1 X148.141 Y139.262 E10.21401
G1 X146.599 Y140.454 E10.36958
G1 X145.561 Y141.237 E10.47337
G1 X145.085 Y141.58 E10.52021
G1 X143.633 Y142.582 E10.66103
G1 X142.678 Y143.208 E10.75218
G1 X142.266 Y143.467 E10.79103
G1 X141.129 Y144.157 E10.89719
G1 X140.688 Y144.415 E10.93798
G1 X139.596 Y145.028 E11.03794
G1 X138.2 Y145.797 E11.16516
G1 X137.621 Y146.099 E11.21729
G1 X136.385 Y146.712 E11.32742
G1 X135.943 Y146.922 E11.36648
G1 X135.209 Y147.257 E11.43089
G1 X134.501 Y147.561 E11.49239
G1 X132.017 Y148.595 E11.70717
G1 X131.129 Y148.927 E11.78285
G1 X130.965 Y148.98 E11.7966
G1 X130.741 Y149.043 E11.81518
G1 X130.35 Y149.167 E11.84792
G1 X128.736 Y149.753 E11.98499
G1 X128.048 Y149.985 E12.04294
G1 X127.071 Y150.287 E12.12457
G1 X126.338 Y150.49 E12.18529
G1 X124.329 Y150.994 E12.35062
G1 X123.62 Y151.151 E12.40859
G1 X122.806 Y151.357 E12.47562
G1 X121.719 Y151.582 E12.56422
G1 X121.339 Y151.655 E12.59511
G1 X119.701 Y151.943 E12.72787
G1 X118.069 Y152.184 E12.85956
G1 X116.775 Y152.343 E12.96362
G1 X116.413 Y152.382 E12.99269
G1 X115.158 Y152.503 E13.09333
G1 X114.764 Y152.535 E13.12489
G1 X113.51 Y152.62 E13.22522
G1 X113.086 Y152.643 E13.25911
G1 X111.481 Y152.703 E13.38732
G1 X109.825 Y152.722 E13.51952
G1 X108.574 Y152.706 E13.61939
G1 X108.137 Y152.694 E13.65428
G1 X106.903 Y152.644 E13.75287
G1 X106.49 Y152.621 E13.78588
G1 X104.846 Y152.504 E13.91745
G1 X103.603 Y152.386 E14.01712
G1 X103.19 Y152.341 E14.05028
G1 X101.534 Y152.132 E14.18352
G1 X99.863 Y151.872 E14.31851
G1 X98.276 Y151.583 E14.44727
G1 X97.065 Y151.329 E14.54604
G1 X96.18 Y151.112 E14.61878
G1 X95.367 Y150.927 E14.68534
G1 X93.246 Y150.355 E14.86069
G1 X92.643 Y150.18 E14.91081
G1 X91.8 Y149.918 E14.98128
G1 X89.691 Y149.227 E15.15843
G1 X88.925 Y148.952 E15.2234
G1 X86.687 Y148.079 E15.41516
G1 X86.122 Y147.844 E15.464
G1 X85.442 Y147.547 E15.52324
G1 X85.057 Y147.373 E15.55696
G1 X83.563 Y146.665 E15.68893
G1 X81.805 Y145.794 E15.84554
G1 X80.791 Y145.256 E15.93717
G1 X80.407 Y145.044 E15.97219
G1 X79.106 Y144.287 E16.09234
G1 X77.574 Y143.354 E16.23552
G1 X76.547 Y142.708 E16.33237
G1 X75.89 Y142.271 E16.39536
G1 X74.473 Y141.27 E16.53385
G1 X73.619 Y140.649 E16.61813
G1 X73.255 Y140.374 E16.65455
G1 X72.244 Y139.592 E16.75658
G1 X71.771 Y139.209 E16.80516
G1 X69.635 Y137.406 E17.02829
G1 X69.144 Y136.969 E17.08075
G1 X67.956 Y135.864 E17.21027
G1 X67.238 Y135.165 E17.29026
G1 X66.567 Y134.462 E17.36783
G1 X66.445 Y134.325 E17.38247
G1 X65.872 Y133.63 E17.45438
G1 X65.781 Y133.511 E17.46633
G1 X65.175 Y132.648 E17.55051
G1 X64.623 Y131.723 E17.6365
G1 X64.208 Y130.906 E17.70964
G1 X64.14 Y130.759 E17.72257
G1 X63.793 Y129.933 E17.79409
G1 X63.728 Y129.761 E17.80877
G1 X63.448 Y128.926 E17.87907
G1 X63.396 Y128.751 E17.89364
G1 X63.182 Y127.917 E17.96237
G1 X63.137 Y127.708 E17.97944
G1 X62.981 Y126.844 E18.04952
G1 X62.958 Y126.679 E18.06282
G1 X62.863 Y125.782 E18.13482
G1 X62.852 Y125.622 E18.14762
G1 X62.823 Y124.739 E18.21815
G1 X62.824 Y124.562 E18.23228
G1 X62.861 Y123.645 E18.30553
G1 X62.873 Y123.487 E18.31818
G1 X62.939 Y122.867 E18.36795
G1 X62.943 Y122.863 E18.3684
G1 X62.955 Y122.715 E18.38026
G1 X62.982 Y122.525 E18.39558
G1 X63.147 Y121.569 E18.47302
G1 X63.178 Y121.423 E18.48493
G1 X63.442 Y120.385 E18.57043
G1 X63.726 Y119.52 E18.6431
G1 X63.778 Y119.379 E18.6551
G1 X64.13 Y118.523 E18.72898
G1 X64.186 Y118.4 E18.73977
G1 X64.669 Y117.444 E18.82527
G1 X65.221 Y116.526 E18.91077
G1 X65.743 Y115.779 E18.98352
G1 X65.841 Y115.648 E18.99658
G1 X66.415 Y114.942 E19.06921
G1 X66.512 Y114.832 E19.08091
G1 X67.127 Y114.179 E19.15252
G1 X67.265 Y114.044 E19.16793
G1 X67.909 Y113.453 E19.2377
G1 X68.047 Y113.335 E19.2522
G1 X68.718 Y112.804 E19.3205
G1 X68.907 Y112.668 E19.33909
G1 X70.233 Y111.808 E19.46525
G1 X78.967 Y106.768 E20.27018
G1 X79.798 Y106.328 E20.34524
G1 X79.963 Y106.249 E20.35985
G1 X80.777 Y105.891 E20.43083
G1 X80.937 Y105.827 E20.44458
G1 X81.814 Y105.517 E20.51884
G1 X82.43 Y105.254 E20.5723
G1 X83.019 Y104.909 E20.62679
G1 X83.56 Y104.492 E20.68131
G1 X84.044 Y104.011 E20.73578
G1 X84.463 Y103.472 E20.79028
G1 X84.812 Y102.884 E20.84486
G1 X85.082 Y102.257 E20.89935
G1 X85.272 Y101.601 E20.95387
G1 X85.378 Y100.93 E21.0081
G1 X85.4 Y100.44 E21.04725
G1 X85.4 Y82.007 E22.51865
G1 X85.436 Y81.001 E22.59901
G1 X85.446 Y80.866 E22.60981
G1 X85.547 Y79.951 E22.6833
G1 X85.573 Y79.776 E22.69742
G1 X85.735 Y78.896 E22.76884
G1 X85.765 Y78.762 E22.77981
G1 X85.996 Y77.876 E22.85289
G1 X86.048 Y77.705 E22.86716
G1 X86.335 Y76.863 E22.93817
G1 X86.398 Y76.697 E22.95234
G1 X86.739 Y75.894 E23.02198
G1 X86.82 Y75.719 E23.03738
G1 X87.301 Y74.794 E23.1206
G1 X87.776 Y74.015 E23.19343
G1 X87.876 Y73.864 E23.20789
G1 X88.392 Y73.143 E23.27866
G1 X88.5 Y73.002 E23.29284
G0 F15000 X88 Y73.69
G1 F2250 X88 Y148.591 E29.27176
G1 F2700 E24.27176
G1 F300 Z0.44
G0 F15000 X89.6 Y149.194 Z0.44
G1 F300 Z0.24
G1 F2700 E29.27176
G1 F2250 X89.6 Y71.755 E35.45328
G1 F2700 E30.45328
G1 F300 Z0.44
G0 F15000 X91.2 Y70.325 Z0.44
G1 F300 Z0.24
G1 F2700 E35.45328
G1 F2250 X91.2 Y149.721 E41.79101
G1 F2700 E36.79101
G1 F300 Z0.44
G0 F15000 X92.8 Y150.225 Z0.44
G1 F300 Z0.24
G1 F2700 E41.79101
G1 F2250 X92.8 Y69.253 E48.25454
G1 F2700 E43.25454
G1 F300 Z0.44
G0 F15000 X94.4 Y68.449 Z0.44
G1 F300 Z0.24
G1 F2700 E48.25454
G1 F2250 X94.4 Y150.666 E54.81746
G1 F2700 E49.81746
G1 F300 Z0.44
G0 F15000 X96 Y151.071 Z0.44
G1 F300 Z0.24
G1 F2700 E54.81746
G1 F2250 X96 Y67.874 E61.45861
G1 F2700 E56.45861
G1 F300 Z0.44
G0 F15000 X97.6 Y67.504 Z0.44
G1 F300 Z0.24
G1 F2700 E61.45861
G1 F2250 X97.6 Y151.441 E68.15882
G1 F2700 E63.15882
G1 F300 Z0.44
G0 F15000 X99.2 Y151.751 Z0.44
G1 F300 Z0.24
G1 F2700 E68.15882
G1 F2250 X99.2 Y67.307 E74.8995
G1 F2700 E69.8995
G1 F300 Z0.44
G0 F15000 X100.8 Y67.277 Z0.44
G1 F300 Z0.24
G1 F2700 E74.8995
G1 F2250 X100.8 Y152.017 E81.66382
G1 F2700 E76.66382
G1 F300 Z0.44
G0 F15000 X102.4 Y152.241 Z0.44
G1 F300 Z0.24
G1 F2700 E81.66382
G1 F2250 X102.4 Y67.277 E88.44601
G1 F2700 E83.44601
G1 F300 Z0.44
G0 F15000 X104 Y67.277 Z0.44
G1 F300 Z0.24
G1 F2700 E88.44601
G1 F2250 X104 Y152.423 E95.24273
G1 F2700 E90.24273
G1 F300 Z0.44
G0 F15000 X105.6 Y152.557 Z0.44
G1 F300 Z0.24
G1 F2700 E95.24273
G1 F2250 X105.6 Y67.277 E102.05015
G1 F2700 E97.05015
G1 F300 Z0.44
G0 F15000 X107.2 Y67.277 Z0.44
G1 F300 Z0.24
G1 F2700 E102.05015
G1 F2250 X107.2 Y152.656 E108.86547
G1 F2700 E103.86547
G1 F300 Z0.44
G0 F15000 X108.8 Y152.708 Z0.44
G1 F300 Z0.24
G1 F2700 E108.86547
G1 F2250 X108.8 Y67.277 E115.68494
G1 F2700 E110.68494
G1 F300 Z0.44
G0 F15000 X110.4 Y67.277 Z0.44
G1 F300 Z0.24
G1 F2700 E115.68494
G1 F2250 X110.4 Y152.716 E122.50506
G1 F2700 E117.50506
G1 F300 Z0.44
G0 F15000 X112 Y152.684 Z0.44
G1 F300 Z0.24
G1 F2700 E122.50506
G1 F2250 X112 Y67.277 E129.32261
G1 F2700 E124.32261
G1 F300 Z0.44
G0 F15000 X113.6 Y67.277 Z0.44
G1 F300 Z0.24
G1 F2700 E129.32261
G1 F2250 X113.6 Y152.614 E136.13458
G1 F2700 E131.13458
G1 F300 Z0.44
G0 F15000 X115.2 Y152.499 Z0.44
G1 F300 Z0.24
G1 F2700 E136.13458
G1 F2250 X115.2 Y67.277 E142.93737
G1 F2700 E137.93737
G1 F300 Z0.44
G0 F15000 X116.8 Y67.277 Z0.44
G1 F300 Z0.24
G1 F2700 E142.93737
G1 F2250 X116.8 Y152.34 E149.72746
G1 F2700 E144.72746
G1 F300 Z0.44
G0 F15000 X118.4 Y152.136 Z0.44
G1 F300 Z0.24
G1 F2700 E149.72746
G1 F2250 X118.4 Y67.277 E156.50128
G1 F2700 E151.50128
G1 F300 Z0.44
G0 F15000 X120 Y67.282 Z0.44
G1 F300 Z0.24
G1 F2700 E156.50128
G1 F2250 X120 Y151.891 E163.25513
G1 F2700 E158.25513
G1 F300 Z0.44
G0 F15000 X121.6 Y151.605 Z0.44
G1 F300 Z0.24
G1 F2700 E163.25513
G1 F2250 X121.6 Y67.388 E169.9777
G1 F2700 E164.9777
G1 F300 Z0.44
G0 F15000 X123.2 Y67.664 Z0.44
G1 F300 Z0.24
G1 F2700 E169.9777
G1 F2250 X123.2 Y151.258 E176.65053
G1 F2700 E171.65053
G1 F300 Z0.44
G0 F15000 X124.8 Y150.876 Z0.44
G1 F300 Z0.24
G1 F2700 E176.65053
G1 F2250 X124.8 Y68.139 E183.25496
G1 F2700 E178.25496
G1 F300 Z0.44
G0 F15000 X126.4 Y68.823 Z0.44
G1 F300 Z0.24
G1 F2700 E183.25496
G1 F2250 X126.4 Y150.473 E189.77261
G1 F2700 E184.77261
G1 F300 Z0.44
G0 F15000 X128 Y150 Z0.44
G1 F300 Z0.24
G1 F2700 E189.77261
G1 F2250 X128 Y69.745 E196.17892
G1 F2700 E191.17892
G1 F300 Z0.44
G0 F15000 X129.6 Y70.987 Z0.44
G1 F300 Z0.24
G1 F2700 E196.17892
G1 F2250 X129.6 Y149.44 E202.44137
G1 F2700 E197.44137
G1 F300 Z0.44
G0 F15000 X131.2 Y148.901 Z0.44
G1 F300 Z0.24
G1 F2700 E202.44137
G1 F2250 X131.2 Y72.639 E208.52894
G1 F2700 E203.52894
G1 F300 Z0.44
G0 F15000 X132.8 Y74.986 Z0.44
G1 F300 Z0.24
G1 F2700 E208.52894
G1 F2250 X132.8 Y148.27 E214.37878
G1 F2700 E209.37878
G1 F300 Z0.44
G0 F15000 X134.4 Y147.604 Z0.44
G1 F300 Z0.24
G1 F2700 E214.37878
G1 F2250 X134.4 Y79.647 E219.8034
G1 F2700 E214.8034
G1 F300 Z0.44
G0 F15000 X136 Y104.045 Z0.44
G1 F300 Z0.24
G1 F2700 E219.8034
G1 F2250 X136 Y146.895 E223.22388
G1 F2700 E218.22388
G1 F300 Z0.44
G0 F15000 X137.6 Y146.11 Z0.44
G1 F300 Z0.24
G1 F2700 E223.22388
G1 F2250 X137.6 Y105.256 E226.48502
G1 F2700 E221.48502
G1 F300 Z0.44
G0 F15000 X139.2 Y105.877 Z0.44
G1 F300 Z0.24
G1 F2700 E226.48502
G1 F2250 X139.2 Y145.247 E229.6277
G1 F2700 E224.6277
G1 F300 Z0.44
G0 F15000 X140.8 Y144.35 Z0.44
G1 F300 Z0.24
G1 F2700 E229.6277
G1 F2250 X140.8 Y106.64 E232.63788
G1 F2700 E227.63788
G1 F300 Z0.44
G0 F15000 X142.4 Y107.548 Z0.44
G1 F300 Z0.24
G1 F2700 E232.63788
G1 F2250 X142.4 Y143.383 E235.49838
G1 F2700 E230.49838
G1 F300 Z0.44
G0 F15000 X144 Y142.329 Z0.44
G1 F300 Z0.24
G1 F2700 E235.49838
G1 F2250 X144 Y108.473 E238.20091
G1 F2700 E233.20091
G1 F300 Z0.44
G0 F15000 X145.6 Y109.398 Z0.44
G1 F300 Z0.24
G1 F2700 E238.20091
G1 F2250 X145.6 Y141.208 E240.74013
G1 F2700 E235.74013
G1 F300 Z0.44
G0 F15000 X147.2 Y139.99 Z0.44
G1 F300 Z0.24
G1 F2700 E240.74013
G1 F2250 X147.2 Y110.323 E243.10827
G1 F2700 E238.10827
G1 F300 Z0.44
G0 F15000 X148.8 Y111.248 Z0.44
G1 F300 Z0.24
G1 F2700 E243.10827
G1 F2250 X148.8 Y138.742 E245.30296
G1 F2700 E240.30296
G1 F300 Z0.44
G0 F15000 X150.4 Y137.377 Z0.44
G1 F300 Z0.24
G1 F2700 E245.30296
G1 F2250 X150.4 Y112.199 E247.31278
G1 F2700 E242.31278
G1 F300 Z0.44
G0 F15000 X152 Y113.379 Z0.44
G1 F300 Z0.24
G1 F2700 E247.31278
G1 F2250 X152 Y135.905 E249.1109
G1 F2700 E244.1109
G1 F300 Z0.44
G0 F15000 X153.6 Y134.254 Z0.44
G1 F300 Z0.24
G1 F2700 E249.1109
G1 F2250 X153.6 Y114.964 E250.65071
G1 F2700 E245.65071
G1 F300 Z0.44
G0 F15000 X155.2 Y117.212 Z0.44
G1 F300 Z0.24
G1 F2700 E250.65071
G1 F2250 X155.2 Y132.03 E251.83355
G1 F2700 E246.83355
G1 F300 Z0.44
G0 F15000 X156.8 Y127.984 Z0.44
G1 F300 Z0.24
G1 F2700 E251.83355
G1 F2250 X156.8 Y121.328 E252.36486
G1 F2700 E247.36486
G1 F300 Z0.44
G0 F15000 X84.8 Y102.904 Z0.44
G1 F300 Z0.24
G1 F2700 E252.36486
G1 F2250 X84.8 Y147.251 E255.90483
G1 F2700 E250.90483
G1 F300 Z0.44
G0 F15000 X86.4 Y147.959 Z0.44
G1 F300 Z0.24
G1 F2700 E255.90483
G1 F2250 X86.4 Y76.692 E261.59367
G1 F2700 E256.59367
G1 F300 Z0.44
G0 F15000 X83.2 Y104.769 Z0.44
G1 F300 Z0.24
G1 F2700 E261.59367
G1 F2250 X83.2 Y146.485 E264.92362
G1 F2700 E259.92362
G1 F300 Z0.44
G0 F15000 X81.6 Y145.685 Z0.44
G1 F300 Z0.24
G1 F2700 E264.92362
G1 F2250 X81.6 Y105.592 E268.12402
G1 F2700 E263.12402
G1 F300 Z0.44
G0 F15000 X80 Y106.232 Z0.44
G1 F300 Z0.24
G1 F2700 E268.12402
